X: 125
T: No_20_Corn_Dance_Song_(j).krn
N: Derived from No_20_Corn_Dance_Song_(j).krn
%%abc-version 2.0
%%abcx-abcm2ps-target-version 5.9.1 (29 Sep 2008)
%%abc-creator hum2abc beta
%%abcx-conversion-date 2019/03/15 08:38:45
%%humdrum-veritas 3635887067
%%humdrum-veritas-data 2113412159
%%linebreak <none>
%%barnumbers 0
L: 1/8
M: 2/4
K: F clef=bass
[K:clef=bass][M:2/4]D/D3/ D/C3/ ]|:  
C/CC/ C3/C/ | 
C3/B,/ C/G,3/ | 
F,/G,G,/ G,/F,3/ | 
F,D,C,2 | 
D,F,D,2 ||  
[M:3/4]C,C,3//C,// C,3/C,/C,2 ||  
[M:2/4]F,/D,3/ D,/C,3/ | 
D,F,D,2 ||  
[M:3/4]C,C,3//C,// C,3/C,/C,2 | 
[M:2/4]C/D3/ D/C3/ :|]  



